X:1
T:Obelisk -- Hornpipe
R:hornpipe
B:Cole's 1000 Fiddle Tunes
M:2/4
L:1/16
K:G
v"4"DC|B,DGA BGDB,|CEAB cAFD|\
B,DGA BGcB|((3ABA) ((3GFE) ((3DED) ((3CB,A,)|
B,DGA BGDB,|CEAB cAFD|B,DGB ADEF|G2B2G2:|
|:vga|bgeg dgBg|dgBg dgBg|bgeg dgBg|fgab a2(ga)|
bgeg dgBg|cBAB cdef|gdBG EcAF|G2B2G2:|
